Improvs/dist/images/main_page/sound_switch.svg

<svg width="34" height="34" viewBox="0 0 34 34" fill="none" xmlns="http://www.w3.org/2000/svg">
<g clip-path="url(#clip0_1584_56471)">
<path d="M8.3421 22.667H2.83268C2.45696 22.667 2.09662 22.5178 1.83095 22.2521C1.56527 21.9864 1.41602 21.6261 1.41602 21.2504V12.7504C1.41602 12.3746 1.56527 12.0143 1.83095 11.7486C2.09662 11.4829 2.45696 11.3337 2.83268 11.3337H8.3421L15.8419 5.19669C15.9457 5.11161 16.0715 5.05777 16.2047 5.04141C16.3379 5.02506 16.473 5.04688 16.5942 5.10432C16.7155 5.16176 16.818 5.25247 16.8897 5.36589C16.9614 5.4793 16.9994 5.61075 16.9993 5.74494V28.2558C16.9994 28.39 16.9614 28.5214 16.8897 28.6348C16.818 28.7482 16.7155 28.8389 16.5942 28.8964C16.473 28.9538 16.3379 28.9757 16.2047 28.9593C16.0715 28.9429 15.9457 28.8891 15.8419 28.804L8.3421 22.667ZM28.9192 17.0004L33.9285 22.0097L31.9253 24.0129L26.916 19.0035L21.9067 24.0129L19.9035 22.0097L24.9128 17.0004L19.9035 11.991L21.9067 9.98786L26.916 14.9972L31.9253 9.98786L33.9285 11.991L28.9192 17.0004Z" fill="white"/>
</g>
<defs>
<clipPath id="clip0_1584_56471">
<rect width="34" height="34" fill="white"/>
</clipPath>
</defs>
</svg>

<svg width="34" height="34" fill="none" xmlns="http://www.w3.org/2000/svg"><g clip-path="url(#clip0_1584_56471)"><path d="M8.342 22.667h-5.51a1.417 1.417 0 01-1.416-1.417v-8.5a1.417 1.417 0 011.417-1.416h5.51l7.499-6.137a.709.709 0 011.157.548v22.51a.708.708 0 01-1.157.549l-7.5-6.137zM28.92 17l5.01 5.01-2.004 2.003-5.009-5.01-5.01 5.01-2.002-2.003L24.913 17l-5.01-5.009 2.004-2.003 5.009 5.01 5.01-5.01 2.003 2.003-5.01 5.01z" fill="#fff"/></g><defs><clipPath id="clip0_1584_56471"><path fill="#fff" d="M0 0h34v34H0z"/></clipPath></defs></svg>
